packages/tokens/icons/cashRegister/size24Px.svg

<svg viewBox="0 0 24 24" fill="none" xmlns="http://www.w3.org/2000/svg" width="1em" height="1em"><path d="M4.5 8.5V8.5C3.94772 8.5 3.5 8.94772 3.5 9.5L3.5 18.5L20.5 18.5V10.5C20.5 9.39543 19.6046 8.5 18.5 8.5H11.5" stroke="currentColor" stroke-linecap="round"/><path d="M12.5 3C12.5 2.72386 12.7239 2.5 13 2.5L20 2.5C20.2761 2.5 20.5 2.72386 20.5 3V6C20.5 6.27614 20.2761 6.5 20 6.5L13 6.5C12.7239 6.5 12.5 6.27614 12.5 6V3Z" stroke="currentColor"/><path d="M15.5 6.5H17.5V8.5H15.5V6.5Z" stroke="currentColor"/><rect x="2.5" y="18.5" width="19" height="3" rx="0.5" stroke="currentColor"/><path d="M5.5 14.5H6.5M8.5 14.5H9.5M11.5 14.5H12.5M14.5 14.5H15.5M17.5 14.5H18.5M5.5 16.5H6.5M8.5 16.5H9.5M11.5 16.5H12.5M14.5 16.5H15.5M17.5 16.5L18.5 16.5" stroke="currentColor" stroke-linecap="round"/><path d="M6.5 6C6.5 5.72386 6.72386 5.5 7 5.5H9C9.27614 5.5 9.5 5.72386 9.5 6V9C9.5 9.27614 9.27614 9.5 9 9.5H7C6.72386 9.5 6.5 9.27614 6.5 9L6.5 6Z" stroke="currentColor"/><rect x="11.5" y="10.5" width="7" height="2" rx="1" stroke="currentColor"/></svg>

<svg xmlns="http://www.w3.org/2000/svg" fill="none" viewBox="0 0 24 24" width="1em" height="1em"><path stroke="currentColor" stroke-linecap="round" d="M4.5 8.5v0a1 1 0 0 0-1 1v9h17v-8a2 2 0 0 0-2-2h-7"/><path stroke="currentColor" d="M12.5 3a.5.5 0 0 1 .5-.5h7a.5.5 0 0 1 .5.5v3a.5.5 0 0 1-.5.5h-7a.5.5 0 0 1-.5-.5V3Zm3 3.5h2v2h-2v-2Z"/><rect width="19" height="3" x="2.5" y="18.5" stroke="currentColor" rx=".5"/><path stroke="currentColor" stroke-linecap="round" d="M5.5 14.5h1m2 0h1m2 0h1m2 0h1m2 0h1m-13 2h1m2 0h1m2 0h1m2 0h1m2 0h1"/><path stroke="currentColor" d="M6.5 6a.5.5 0 0 1 .5-.5h2a.5.5 0 0 1 .5.5v3a.5.5 0 0 1-.5.5H7a.5.5 0 0 1-.5-.5V6Z"/><rect width="7" height="2" x="11.5" y="10.5" stroke="currentColor" rx="1"/></svg>
